img/behance.svg

<svg xmlns="http://www.w3.org/2000/svg" width="49.652" height="49.652" viewBox="0 0 49.652 49.652"><path d="M20.894 20.686c0-1.9-1.293-1.9-1.293-1.9h-5.321v4.078h4.991c.863 0 1.623-.275 1.623-2.178zm12.327 2.178c-2.821 0-3.215 2.814-3.215 2.814h6.002c0 .002.037-2.814-2.787-2.814zm-13.62 2.816h-5.318v4.886h5.05c.757-.019 2.196-.235 2.196-2.374 0-2.536-1.928-2.512-1.928-2.512zm5.225-25.68c-13.689 0-24.826 11.137-24.826 24.826 0 13.688 11.137 24.826 24.826 24.826 13.688 0 24.826-11.138 24.826-24.826 0-13.689-11.136-24.826-24.826-24.826zm4.393 16.615h7.539v2.251h-7.539v-2.251zm-3.812 11.804c0 5.577-5.806 5.395-5.806 5.395h-9.508v-18.275h9.508c2.891 0 5.172 1.597 5.172 4.867 0 3.269-2.788 3.477-2.788 3.477 3.675-.001 3.422 4.536 3.422 4.536zm14.105-.3h-9.471c0 3.396 3.217 3.182 3.217 3.182 3.036 0 2.93-1.966 2.93-1.966h3.219c0 5.218-6.254 4.859-6.254 4.859-7.503 0-7.021-6.985-7.021-6.985s-.007-7.022 7.021-7.022c7.396 0 6.357 7.932 6.359 7.932z"/></svg>

<?xml version="1.0" encoding="iso-8859-1"?>
<!-- Generator: Adobe Illustrator 16.0.0, SVG Export Plug-In . SVG Version: 6.00 Build 0)  -->
<!DOCTYPE svg PUBLIC "-//W3C//DTD SVG 1.1//EN" "http://www.w3.org/Graphics/SVG/1.1/DTD/svg11.dtd">
<svg version="1.1" id="Capa_1" xmlns="http://www.w3.org/2000/svg" xmlns:xlink="http://www.w3.org/1999/xlink" x="0px" y="0px"
	 width="49.652px" height="49.652px" viewBox="0 0 49.652 49.652" style="enable-background:new 0 0 49.652 49.652;"
	 xml:space="preserve">
<g>
	<g>
		<g>
			<path d="M20.894,20.686c0-1.9-1.293-1.9-1.293-1.9h-0.685h-4.634H14.28v4.078h4.991C20.134,22.864,20.894,22.589,20.894,20.686z"
				/>
			<path d="M33.221,22.864c-2.821,0-3.215,2.814-3.215,2.814h6.002C36.008,25.68,36.045,22.864,33.221,22.864z"/>
			<path d="M19.601,25.68h-5.318v4.886h4.711c0.08,0,0.198,0.004,0.339,0c0.757-0.019,2.196-0.235,2.196-2.374
				C21.529,25.656,19.601,25.68,19.601,25.68z"/>
			<path d="M24.826,0C11.137,0,0,11.137,0,24.826c0,13.688,11.137,24.826,24.826,24.826c13.688,0,24.826-11.138,24.826-24.826
				C49.652,11.137,38.516,0,24.826,0z M29.219,16.615h7.539v2.251h-7.539V16.615z M25.407,28.419c0,5.577-5.806,5.395-5.806,5.395
				h-5.318h-0.156h-4.034V15.539h4.034h0.156h5.318c2.891,0,5.172,1.597,5.172,4.867c0,3.269-2.788,3.477-2.788,3.477
				C25.66,23.882,25.407,28.419,25.407,28.419z M39.512,28.119h-9.471c0,3.396,3.217,3.182,3.217,3.182
				c3.036,0,2.93-1.966,2.93-1.966h3.219c0,5.218-6.254,4.859-6.254,4.859c-7.503,0-7.021-6.985-7.021-6.985
				s-0.007-7.022,7.021-7.022C40.549,20.187,39.51,28.119,39.512,28.119z"/>
		</g>
	</g>
</g>
<g>
</g>
<g>
</g>
<g>
</g>
<g>
</g>
<g>
</g>
<g>
</g>
<g>
</g>
<g>
</g>
<g>
</g>
<g>
</g>
<g>
</g>
<g>
</g>
<g>
</g>
<g>
</g>
<g>
</g>
</svg>
